X:22
T:Lord Moira’s Welcome to Scotland. 2voices. Dix.22
M:C
L:1/8
Q:1/4=120
S:Anon. MS dated 1811, from Dixon collection, Holton le Moor, Lincs.
R:strathspey
C:Duncan MacIntyre
C:Athole Collection credits A. Duff
O:England;Lincolnshire;Holton le Moor
Z:vmp.R.Greig 2010 <http://www.village-music-project.org.uk>
K:F
[V:1]C2|:F<F F<F A<c~c2|B>G A>F {EF}G>F EC|F<F F<F Ac~c2|d>f .e/.f/.g/.e/ .f/.g/.a/.g/ f<a:|
[V:2]z2|:F,,2 F,2F,,2F,2|E,2F,2C2A,2|A,2F,2F,2A,,2|B,,2C,2F,,2F,2:|
[V:1]f<f a<f g>f ec|d<d {e}f>d “tr”c>B AF|f<f a<f “tr”g>f ec|~d>f e/f/g/e/f2f g/a/|
[V:2]F,2F,2C,2C,2|B,,2D,E,F,2F,,2|F,2F,2C,2C,2|B,,2C,2F,2F,,z|
[V:1]b>g a>f “tr”g>f df|d/c/B/A/ f>A B/A/G/F/ G>A|F<F F<F B<d ~d2|c>f .e/.f/.g/.e/ .f/.g/.a/.f/ f<a:|
[V:2]E,2F,2C2B,2|A,2F,2C,2B,,2|A,,2F,,2B,,2B,,2|E,2 E,,2F,,2F,2:|
[V:1]|:{B}A>F c>F (d/c/)B/A/ cf|AFcF “tr”G>ABd|A>Fc>F “quavers in ms”d/c/B/A/ c<g|d~>f .e/.f/.g/.e/ .f/.g/.a/.g/ .f<a:|
[V:2]|:[F,2F,,2][F,2F,,2][F,2F,,2][F,2F,,2]|[F,2F,,2][F,2F,,2][C,2E,,2][C,2E,,2]|[F,2F,,2][F,2F,,2][F,2F,,2]A,,2|[B,,2B,,,2][C,2A,,,2]F,,2F,2:|
[V:1]|:”rests omitted”f<a f<a e<g c2|~d>e fd c>BAF|(3fga (3fga (3fga ~c2|d>f e/f/g/e/ “tr”f2 f g/a/|
[V:2]|:F,2A,2C2C,2|B,,2D,E,F,2F,,2|F,2A,2C2C,2|B,,2C,2F,,2F,z|
[V:1](.d.b) (.c.a) (.B.g) (.A.f)|{ce}c>B A>F {EF}G>F EC|(3FGA (3GAB (3ABc (3Bcd|”tr”B>f a/g/f/e/ {g}f/e/d/c/B/A/G/”f added”F/:|
[V:2]B,2A,2G,2F,2|E,2F,2C,2B,,2|A,,2E,,2F,,2B,,2|C,2E,,2F,,2F,,2:|

